X:1
T:Title
%%score [ ( 1 2 ) ( 3 4 ) ]
L:1/8
Q:1/4=72
M:4/4
K:F
V:1 treble nm="Midi_74"
V:2 treble 
V:3 bass nm="Midi_74"
V:4 bass 
V:1
"^Long Milford (L.M.)" C2 | D2 G2"^1" F2 E2 | F3 G A2 || F2 | B2 B2 A2 G2 | F2 G2 E2 ||[M:4/4] C2 | %7
 F2 E2 D2 A2 | G2 F2 E2 || G2 | c2 F2 D2 G2 | E3 F F4 || F4 F4 |] %13
V:2
 C2 | B,2 D2 C2 C2 | C3 C F2 || F2 | F2 G2 C2 C2 | C2 =B,2 C2 ||[M:4/4] C2 | C2 ^C2 D2 =C2 | %8
 B,2 D2 C2 || C2 | C2 C2 D2 D2 | C2"^1" C2 C4 || D4 C4 |] %13
V:3
 F,2 | F,2 B,2 A,2 G,2 | A,3 B, C2 || A,2 | D2 C2 C2 G,2 | A,2 G,2 G,2 ||[M:4/4] E,2 | %7
 F,2 G,2 F,2 ^F,2 | G,2 G,2 G,2 || E,2 | F,2 F,2 F,2 B,2 | G,2 B,2 A,4 || B,4 A,4 |] %13
V:4
 A,,2 | B,,2 G,,2 C,2 C,2 | F,3 F, F,2 || F,2 | D,2 E,2 F,2 E,2 | D,2 G,,2 C,2 || %6
[M:4/4] !courtesy!_B,,2 | A,,2 A,,2 B,,2 D,2 | G,,2 B,,2 C,2 || B,,2 | A,,2 A,,2 B,,2 G,,2 | %11
 C,2 C,2 F,4 || B,,4 F,4 |] %13

